assets/img/microillustration/b_system.svg

<?xml version="1.0" encoding="UTF-8"?>
<svg width="106px" height="106px" viewBox="0 0 106 106" version="1.1" xmlns="http://www.w3.org/2000/svg" xmlns:xlink="http://www.w3.org/1999/xlink">
    <title>4. Elements_Microillustrations/B_System</title>
    <g id="4.-Elements_Microillustrations/B_System" stroke="none" stroke-width="1" fill="none" fill-rule="evenodd">
        <path d="M83.9787234,53.5 C90.5711086,49.6297772 95,42.4734342 95,34.2794605 C95,21.9750073 85.0195347,12 72.7083489,12 C64.1606321,12 56.7408237,16.8103578 53,23.8674644 C49.2591763,16.8103578 41.8393679,12 33.2916511,12 C20.9804653,12 11,21.9750073 11,34.2794605 C11,42.4734342 15.4288914,49.6297772 22.0212766,53.5 C15.4288914,57.3702228 11,64.5265658 11,72.7205395 C11,85.0249927 20.9804653,95 33.2916511,95 C41.8393679,95 49.2591763,90.1896422 53,83.1325356 C56.7408237,90.1896422 64.1606321,95 72.7083489,95 C85.0195347,95 95,85.0249927 95,72.7205395 C95,64.5265658 90.5711086,57.3702228 83.9787234,53.5" id="Fill-4" fill="#0096B2"></path>
        <path d="M53.4453125,70.125 C57.2734375,70.125 60.2148438,69.265625 62.2695312,67.546875 C64.3242188,65.828125 65.3515625,63.3671875 65.3515625,60.1640625 C65.3515625,58.2265625 64.8476562,56.5664062 63.8398437,55.1835938 C62.8320312,53.8007812 61.40625,52.859375 59.5625,52.359375 C61.1875,51.671875 62.421875,50.703125 63.265625,49.453125 C64.109375,48.203125 64.53125,46.796875 64.53125,45.234375 C64.53125,42.171875 63.5234375,39.8671875 61.5078125,38.3203125 C59.4921875,36.7734375 56.5546875,36 52.6953125,36 L52.6953125,36 L41,36 L41,70.125 L53.4453125,70.125 Z M52.7421875,50.3671875 L46.9296875,50.3671875 L46.9296875,40.78125 L52.6953125,40.78125 C54.7265625,40.78125 56.2226562,41.15625 57.1835938,41.90625 C58.1445312,42.65625 58.625,43.875 58.625,45.5625 C58.625,47.09375 58.1054688,48.2773438 57.0664062,49.1132812 C56.0273438,49.9492188 54.5859375,50.3671875 52.7421875,50.3671875 L52.7421875,50.3671875 Z M53.515625,65.390625 L46.9296875,65.390625 L46.9296875,54.7265625 L54.0078125,54.7265625 C57.6328125,54.8046875 59.4453125,56.6171875 59.4453125,60.1640625 C59.4453125,61.8046875 58.921875,63.0859375 57.875,64.0078125 C56.828125,64.9296875 55.375,65.390625 53.515625,65.390625 L53.515625,65.390625 Z" id="B" fill="#FFFFFF"></path>
    </g>
</svg>

<?xml version="1.0" encoding="UTF-8"?>
<svg version="1.1" viewBox="0 0 106 106" xmlns="http://www.w3.org/2000/svg">
<title>4. Elements_Microillustrations/B_System</title>
<g fill-rule="evenodd">
<path d="m83.979 53.5c6.5924-3.8702 11.021-11.027 11.021-19.221 0-12.304-9.9805-22.279-22.292-22.279-8.5477 0-15.968 4.8104-19.708 11.867-3.7408-7.0571-11.161-11.867-19.708-11.867-12.311 0-22.292 9.975-22.292 22.279 0 8.194 4.4289 15.35 11.021 19.221-6.5924 3.8702-11.021 11.027-11.021 19.221 0 12.304 9.9805 22.279 22.292 22.279 8.5477 0 15.968-4.8104 19.708-11.867 3.7408 7.0571 11.161 11.867 19.708 11.867 12.311 0 22.292-9.975 22.292-22.279 0-8.194-4.4289-15.35-11.021-19.221" fill="#009BBD"/>
<path d="m53.445 70.125c3.8281 0 6.7695-0.85938 8.8242-2.5781 2.0547-1.7188 3.082-4.1797 3.082-7.3828 0-1.9375-0.50391-3.5977-1.5117-4.9805-1.0078-1.3828-2.4336-2.3242-4.2773-2.8242 1.625-0.6875 2.8594-1.6562 3.7031-2.9062s1.2656-2.6562 1.2656-4.2188c0-3.0625-1.0078-5.3672-3.0234-6.9141s-4.9531-2.3203-8.8125-2.3203h-11.695v34.125h12.445zm-0.70312-19.758h-5.8125v-9.5859h5.7656c2.0312 0 3.5273 0.375 4.4883 1.125 0.96094 0.75 1.4414 1.9688 1.4414 3.6562 0 1.5312-0.51953 2.7148-1.5586 3.5508-1.0391 0.83594-2.4805 1.2539-4.3242 1.2539zm0.77344 15.023h-6.5859v-10.664h7.0781c3.625 0.078125 5.4375 1.8906 5.4375 5.4375 0 1.6406-0.52344 2.9219-1.5703 3.8438s-2.5 1.3828-4.3594 1.3828z" fill="#fff"/>
</g>
</svg>
